images/global/icons/utility/calendar/wedding-date.svg

<svg id="icon_x2F_Utility_x2F_Calendar_x2F_wedding-date-Layer_1" xmlns="http://www.w3.org/2000/svg" viewBox="0 0 48 48" enable-background="new 0 0 48 48"><title>icon/Utility/Calendar/wedding-date</title><g id="icon_x2F_Utility_x2F_Calendar_x2F_wedding-date-Symbols"><g id="icon_x2F_Utility_x2F_Calendar_x2F_wedding-date"><g id="icon_x2F_Utility_x2F_Calendar_x2F_wedding-date-Icon" transform="translate(11 12)"><g id="icon_x2F_Utility_x2F_Calendar_x2F_wedding-date-Mask"><path id="icon_x2F_Utility_x2F_Calendar_x2F_wedding-date-path-1_1_" d="M23.2 1.9C24.8 1.9 26 3 26 4.7v14.6c0 1.6-1.2 2.8-2.8 2.8H2.8C1.2 22 0 20.9 0 19.3V4.7C0 3 1.2 1.9 2.8 1.9h3v2.5c0 .7.6 1.3 1.3 1.3s1.3-.6 1.3-1.3V1.9h9.1v2.5c0 .7.6 1.3 1.3 1.3.7 0 1.3-.6 1.3-1.3V1.9h3.1zM3.9 16.1v1.3h1.3v-1.3H3.9zm0-4.7v1.3h1.3v-1.3H3.9zm0-4.2v1.3h1.3V7.2H3.9zm10.2 0v1.3h1.3V7.2h-1.3zm-3.5 0v1.3h1.3V7.2h-1.3zm-3.3 0v1.3h1.3V7.2H7.3zm0 8.9v1.3h1.3v-1.3H7.3zm6.8 0v1.3h1.3v-1.3h-1.3zm1.2-2.4c.5-.5.8-1.1.8-1.8s-.3-1.3-.8-1.8-1.1-.7-1.8-.7-1.4.3-1.8.7l-.5.4-.4-.5c-.5-.4-1.1-.7-1.8-.7s-1.3.2-1.8.7c-.5.5-.8 1.2-.8 1.8 0 .7.3 1.3.8 1.8l3.7 3.4c.1.1.2.1.4.1.1 0 .3 0 .4-.1l3.6-3.3zm2.1 2.4v1.3h1.3v-1.3h-1.3zm0-4.7v1.3h1.3v-1.3h-1.3zm0-4.2v1.3h1.3V7.2h-1.3zm3.4 8.9v1.3h1.3v-1.3h-1.3zm0-4.7v1.3h1.3v-1.3h-1.3zm0-4.2v1.3h1.3V7.2h-1.3zM7.2 5.1c-.4 0-.7-.3-.7-.6V.6c0-.3.3-.6.7-.6.4 0 .7.3.7.6v3.8c-.1.4-.4.7-.7.7zm11.7 0c-.4 0-.6-.3-.6-.6V.6c0-.4.3-.6.6-.6.4 0 .6.3.6.6v3.8c0 .4-.3.7-.6.7z" fill="#384048"/></g><defs><filter id="icon_x2F_Utility_x2F_Calendar_x2F_wedding-date-Adobe_OpacityMaskFilter" filterUnits="userSpaceOnUse" x="-11" y="-12" width="48" height="48"><feColorMatrix values="1 0 0 0 0 0 1 0 0 0 0 0 1 0 0 0 0 0 1 0"/></filter></defs><mask maskUnits="userSpaceOnUse" x="-11" y="-12" width="48" height="48" id="icon_x2F_Utility_x2F_Calendar_x2F_wedding-date-mask-2"><g filter="url(#icon_x2F_Utility_x2F_Calendar_x2F_wedding-date-Adobe_OpacityMaskFilter)"><path id="icon_x2F_Utility_x2F_Calendar_x2F_wedding-date-path-1" d="M23.2 1.9C24.8 1.9 26 3 26 4.7v14.6c0 1.6-1.2 2.8-2.8 2.8H2.8C1.2 22 0 20.9 0 19.3V4.7C0 3 1.2 1.9 2.8 1.9h3v2.5c0 .7.6 1.3 1.3 1.3s1.3-.6 1.3-1.3V1.9h9.1v2.5c0 .7.6 1.3 1.3 1.3.7 0 1.3-.6 1.3-1.3V1.9h3.1zM3.9 16.1v1.3h1.3v-1.3H3.9zm0-4.7v1.3h1.3v-1.3H3.9zm0-4.2v1.3h1.3V7.2H3.9zm10.2 0v1.3h1.3V7.2h-1.3zm-3.5 0v1.3h1.3V7.2h-1.3zm-3.3 0v1.3h1.3V7.2H7.3zm0 8.9v1.3h1.3v-1.3H7.3zm6.8 0v1.3h1.3v-1.3h-1.3zm1.2-2.4c.5-.5.8-1.1.8-1.8s-.3-1.3-.8-1.8-1.1-.7-1.8-.7-1.4.3-1.8.7l-.5.4-.4-.5c-.5-.4-1.1-.7-1.8-.7s-1.3.2-1.8.7c-.5.5-.8 1.2-.8 1.8 0 .7.3 1.3.8 1.8l3.7 3.4c.1.1.2.1.4.1.1 0 .3 0 .4-.1l3.6-3.3zm2.1 2.4v1.3h1.3v-1.3h-1.3zm0-4.7v1.3h1.3v-1.3h-1.3zm0-4.2v1.3h1.3V7.2h-1.3zm3.4 8.9v1.3h1.3v-1.3h-1.3zm0-4.7v1.3h1.3v-1.3h-1.3zm0-4.2v1.3h1.3V7.2h-1.3zM7.2 5.1c-.4 0-.7-.3-.7-.6V.6c0-.3.3-.6.7-.6.4 0 .7.3.7.6v3.8c-.1.4-.4.7-.7.7zm11.7 0c-.4 0-.6-.3-.6-.6V.6c0-.4.3-.6.6-.6.4 0 .6.3.6.6v3.8c0 .4-.3.7-.6.7z" fill="#fff"/></g></mask><g id="icon_x2F_Utility_x2F_Calendar_x2F_wedding-date-Color_x2F_Grayscale_x2F_Night-Sky" mask="url(#icon_x2F_Utility_x2F_Calendar_x2F_wedding-date-mask-2)"><path fill="#111" d="M0 0h48v48H0z" transform="translate(-11 -12)" id="icon_x2F_Utility_x2F_Calendar_x2F_wedding-date-Swatch"/></g></g></g></g></svg>

<?xml version="1.0" encoding="utf-8"?>
<!-- Generator: Adobe Illustrator 21.0.2, SVG Export Plug-In . SVG Version: 6.00 Build 0)  -->
<svg version="1.1" id="icon_x2F_Utility_x2F_Calendar_x2F_wedding-date-Layer_1" xmlns="http://www.w3.org/2000/svg" xmlns:xlink="http://www.w3.org/1999/xlink" x="0px" y="0px"
	 viewBox="0 0 48 48" style="enable-background:new 0 0 48 48;" xml:space="preserve">
<title>icon/Utility/Calendar/wedding-date</title>
<desc>Created with Sketch.</desc>
<g id="icon_x2F_Utility_x2F_Calendar_x2F_wedding-date-Symbols">
	<g id="icon_x2F_Utility_x2F_Calendar_x2F_wedding-date">
		<g id="icon_x2F_Utility_x2F_Calendar_x2F_wedding-date-Icon" transform="translate(11.000000, 12.000000)">
			<g id="icon_x2F_Utility_x2F_Calendar_x2F_wedding-date-Mask">
				<path id="icon_x2F_Utility_x2F_Calendar_x2F_wedding-date-path-1_1_" style="fill:#384048;" d="M23.2,1.9C24.8,1.9,26,3,26,4.7v14.6c0,1.6-1.2,2.8-2.8,2.8H2.8
					C1.2,22,0,20.9,0,19.3V4.7C0,3,1.2,1.9,2.8,1.9h3v2.5c0,0.7,0.6,1.3,1.3,1.3s1.3-0.6,1.3-1.3V1.9h9.1v2.5c0,0.7,0.6,1.3,1.3,1.3
					c0.7,0,1.3-0.6,1.3-1.3V1.9H23.2z M3.9,16.1v1.3h1.3v-1.3H3.9z M3.9,11.4v1.3h1.3v-1.3H3.9z M3.9,7.2v1.3h1.3V7.2H3.9z
					 M14.1,7.2v1.3h1.3V7.2H14.1z M10.6,7.2v1.3h1.3V7.2H10.6z M7.3,7.2v1.3h1.3V7.2H7.3z M7.3,16.1v1.3h1.3v-1.3H7.3z M14.1,16.1
					v1.3h1.3v-1.3H14.1z M15.3,13.7c0.5-0.5,0.8-1.1,0.8-1.8c0-0.7-0.3-1.3-0.8-1.8c-0.5-0.5-1.1-0.7-1.8-0.7
					c-0.7,0-1.4,0.3-1.8,0.7l-0.5,0.4L10.8,10C10.3,9.6,9.7,9.3,9,9.3c-0.7,0-1.3,0.2-1.8,0.7c-0.5,0.5-0.8,1.2-0.8,1.8
					c0,0.7,0.3,1.3,0.8,1.8l3.7,3.4c0.1,0.1,0.2,0.1,0.4,0.1c0.1,0,0.3,0,0.4-0.1L15.3,13.7z M17.4,16.1v1.3h1.3v-1.3H17.4z
					 M17.4,11.4v1.3h1.3v-1.3H17.4z M17.4,7.2v1.3h1.3V7.2H17.4z M20.8,16.1v1.3h1.3v-1.3H20.8z M20.8,11.4v1.3h1.3v-1.3H20.8z
					 M20.8,7.2v1.3h1.3V7.2H20.8z M7.2,5.1c-0.4,0-0.7-0.3-0.7-0.6V0.6C6.5,0.3,6.8,0,7.2,0c0.4,0,0.7,0.3,0.7,0.6v3.8
					C7.8,4.8,7.5,5.1,7.2,5.1z M18.9,5.1c-0.4,0-0.6-0.3-0.6-0.6V0.6c0-0.4,0.3-0.6,0.6-0.6c0.4,0,0.6,0.3,0.6,0.6v3.8
					C19.5,4.8,19.2,5.1,18.9,5.1z"/>
			</g>
			<defs>
				<filter id="icon_x2F_Utility_x2F_Calendar_x2F_wedding-date-Adobe_OpacityMaskFilter" filterUnits="userSpaceOnUse" x="-11" y="-12" width="48" height="48">
					<feColorMatrix  type="matrix" values="1 0 0 0 0  0 1 0 0 0  0 0 1 0 0  0 0 0 1 0"/>
				</filter>
			</defs>
			<mask maskUnits="userSpaceOnUse" x="-11" y="-12" width="48" height="48" id="icon_x2F_Utility_x2F_Calendar_x2F_wedding-date-mask-2">
				<g style="filter:url(#icon_x2F_Utility_x2F_Calendar_x2F_wedding-date-Adobe_OpacityMaskFilter);">
					<path id="icon_x2F_Utility_x2F_Calendar_x2F_wedding-date-path-1" style="fill:#FFFFFF;" d="M23.2,1.9C24.8,1.9,26,3,26,4.7v14.6c0,1.6-1.2,2.8-2.8,2.8H2.8
						C1.2,22,0,20.9,0,19.3V4.7C0,3,1.2,1.9,2.8,1.9h3v2.5c0,0.7,0.6,1.3,1.3,1.3s1.3-0.6,1.3-1.3V1.9h9.1v2.5
						c0,0.7,0.6,1.3,1.3,1.3c0.7,0,1.3-0.6,1.3-1.3V1.9H23.2z M3.9,16.1v1.3h1.3v-1.3H3.9z M3.9,11.4v1.3h1.3v-1.3H3.9z M3.9,7.2
						v1.3h1.3V7.2H3.9z M14.1,7.2v1.3h1.3V7.2H14.1z M10.6,7.2v1.3h1.3V7.2H10.6z M7.3,7.2v1.3h1.3V7.2H7.3z M7.3,16.1v1.3h1.3v-1.3
						H7.3z M14.1,16.1v1.3h1.3v-1.3H14.1z M15.3,13.7c0.5-0.5,0.8-1.1,0.8-1.8c0-0.7-0.3-1.3-0.8-1.8c-0.5-0.5-1.1-0.7-1.8-0.7
						c-0.7,0-1.4,0.3-1.8,0.7l-0.5,0.4L10.8,10C10.3,9.6,9.7,9.3,9,9.3c-0.7,0-1.3,0.2-1.8,0.7c-0.5,0.5-0.8,1.2-0.8,1.8
						c0,0.7,0.3,1.3,0.8,1.8l3.7,3.4c0.1,0.1,0.2,0.1,0.4,0.1c0.1,0,0.3,0,0.4-0.1L15.3,13.7z M17.4,16.1v1.3h1.3v-1.3H17.4z
						 M17.4,11.4v1.3h1.3v-1.3H17.4z M17.4,7.2v1.3h1.3V7.2H17.4z M20.8,16.1v1.3h1.3v-1.3H20.8z M20.8,11.4v1.3h1.3v-1.3H20.8z
						 M20.8,7.2v1.3h1.3V7.2H20.8z M7.2,5.1c-0.4,0-0.7-0.3-0.7-0.6V0.6C6.5,0.3,6.8,0,7.2,0c0.4,0,0.7,0.3,0.7,0.6v3.8
						C7.8,4.8,7.5,5.1,7.2,5.1z M18.9,5.1c-0.4,0-0.6-0.3-0.6-0.6V0.6c0-0.4,0.3-0.6,0.6-0.6c0.4,0,0.6,0.3,0.6,0.6v3.8
						C19.5,4.8,19.2,5.1,18.9,5.1z"/>
				</g>
			</mask>
			<g id="icon_x2F_Utility_x2F_Calendar_x2F_wedding-date-Color_x2F_Grayscale_x2F_Night-Sky" style="mask:url(#icon_x2F_Utility_x2F_Calendar_x2F_wedding-date-mask-2);">
				<g id="icon_x2F_Utility_x2F_Calendar_x2F_wedding-date-Swatch" transform="translate(-11.000000, -12.000000)">
					<rect style="fill:#111111;" width="48" height="48"/>
				</g>
			</g>
		</g>
	</g>
</g>
</svg>
